X: 644
T: The Reel of Glames
P: Longways for as many as will
%R: reel
B: "Caledonian Country Dances" printed by John Walsh for John Johnson, London
S: 1: CCDTB http://imslp.org/wiki/Caledonian_Country_Dances_with_a_Thorough_Bass_(Various) p.45
S: 3: CCD3  http://javanese.imslp.info/files/imglnks/usimg/6/61/IMSLP173105-PMLP149069-caledoniancountr00ingl.pdf p.100
Z: 2013 John Chambers <jc:trillian.mit.edu>
N: "Each Strain twice." Repeats changed to match this instruction.
M: C|
L: 1/8
K: G
% - - - - - - - - - - - - - - - - - - - - - - - - -
V: 1
|: GdBd A/A/A ce | GdBd GdBd | c>dB>c A/A/A ce | dcBA GABd :|
|: G/G/G gG AB c>e | G/G/G gG G/G/G gG | G/G/G gG ABce | dcBA GABd :|
% - - - - - - - - - - - - - - - - - - - - - - - - -
V: 2 clef=bass middle=d
|: g2G2 d2c2 | g2G2 g2G2 | a2g2 d2c2 | G2d2 G4 :|
|: g2G2 d2c2 | B2G2 g2G2 | g2e2 d2c2 | G2d2 G4 :|
% - - - - - - - - - - - - - - - - - - - - - - - - -
%%center Each Strain twice.
%%begintext align
%% The 1st Man turns the 2d Wo. and fall back and turn S. then 1st Wo. sett to
%% the 2d Man and fall back and turn S. the 1st Man change Places with the 2d Wo
%% then 1st Wo. change Places with the 2d Man. then all four meet and turn S.
%% then the 1st Cu. being in the 2d Cu. Place, lead thro' and cast off :|
%%endtext

%%sep 1 1 500
%%sep 1 1 500
